assets/toolbar/transform.svg

<?xml version="1.0" encoding="utf-8"?>
<svg fill="#000000" width="800px" height="800px" viewBox="0 0 64 64" data-name="Material Expand" id="Material_Expand" xmlns="http://www.w3.org/2000/svg">
  <path d="M 12 40 C 10.895 40 10 40.895 10 42 L 10 48 L 6 48 C 4.895 48 4 48.895 4 50 L 4 60 C 4 61.105 4.895 62 6 62 L 18 62 C 19.105 62 20 61.105 20 60 L 20 50 C 20 48.895 19.105 48 18 48 L 14 48 L 14 44 L 30 44 L 30 48 L 26 48 C 24.895 48 24 48.895 24 50 L 24 60 C 24 61.105 24.895 62 26 62 L 38 62 C 39.105 62 40 61.105 40 60 L 40 50 C 40 48.895 39.105 48 38 48 L 34 48 L 34 44 L 51 44 L 51 48 L 47 48 C 45.895 48 45 48.895 45 50 L 45 60 C 45 61.105 45.895 62 47 62 L 59 62 C 60.105 62 61 61.105 61 60 L 61 50 C 61 48.895 60.105 48 59 48 L 55 48 L 55 42 C 55 40.895 54.105 40 53 40 L 34 40 L 34 35 L 48 35 C 51.312 34.997 53.997 32.312 54 29 L 54 4 C 54 2.895 53.105 2 52 2 L 13 2 C 11.895 2 11 2.895 11 4 L 11 12 L 9 12 C 7.895 12 7 12.895 7 14 L 7 29 C 7.003 32.312 9.688 34.997 13 35 L 30 35 L 30 40 L 12 40 Z M 15 6 L 50 6 L 50 29 C 50 30.54 48.333 31.502 47 30.732 C 46.381 30.375 46 29.715 46 29 L 46 14 C 46 12.895 45.105 12 44 12 L 15 12 L 15 6 Z M 14.899 20.096 L 19.231 20.117 L 19.23 24.143 L 23.054 24.161 L 23.045 20.139 L 35.978 20.043 C 35.977 20.724 36.024 24.142 36.024 24.142 L 14.898 24.161 L 14.899 20.096 Z"/>
</svg>

<?xml version="1.0" ?><!-- Uploaded to: SVG Repo, www.svgrepo.com, Generator: SVG Repo Mixer Tools -->
<svg fill="#000000" width="800px" height="800px" viewBox="0 0 64 64" data-name="Material Expand" id="Material_Expand" xmlns="http://www.w3.org/2000/svg"><path d="M12,40a2,2,0,0,0-2,2v6H6a2,2,0,0,0-2,2V60a2,2,0,0,0,2,2H18a2,2,0,0,0,2-2V50a2,2,0,0,0-2-2H14V44H30v4H26a2,2,0,0,0-2,2V60a2,2,0,0,0,2,2H38a2,2,0,0,0,2-2V50a2,2,0,0,0-2-2H34V44H51v4H47a2,2,0,0,0-2,2V60a2,2,0,0,0,2,2H59a2,2,0,0,0,2-2V50a2,2,0,0,0-2-2H55V42a2,2,0,0,0-2-2H34V35H48a6.006,6.006,0,0,0,6-6V4a2,2,0,0,0-2-2H13a2,2,0,0,0-2,2v8H9a2,2,0,0,0-2,2V29a6.006,6.006,0,0,0,6,6H30v5Zm4,18H8V52h8Zm20,0H28V52h8Zm21,0H49V52h8ZM15,6H50V29a2,2,0,0,1-4,0V14a2,2,0,0,0-2-2H15ZM11,29V16H42V29a5.972,5.972,0,0,0,.343,2H13A2,2,0,0,1,11,29Z"/><rect height="4" width="4" x="15" y="20"/><rect height="4" width="13" x="23" y="20"/></svg>
